X:50
T:Gallows Hill
R:reel
C:Kevin O'Connor
D:Kevin O'Connor: From the Chest
M:C|
K:Bm
FBBA B2FB|dBcB BAFA|EAdB cAAc|dBcA BAGA|
FBBA B2FB|dBcB BAFA|EAdB cAAc|dBcA B4:||
K:Bdor
f3f fece|~f3g afec|A2af geea|~f3a edcd|
~B3f fece|~f3g afec|
A2af geea|1 ~f2ec B4:|2 ~f2ec ~B3A||
